Origami/16x16/apps/synfig_icon.svg

<svg width="16" height="16" version="1.1" viewBox="0 0 4.23 4.23" xmlns="http://www.w3.org/2000/svg">
 <path d="m2.1223185 6.9098422e-5c-0.0140115-4.1599783e-4 -0.0275478 0.0049475716-0.0372479 0.014758322-0.1399571 0.14157687-0.2822021 0.30043076-0.4107601 0.45163377-1.495e-4 1.898e-4 -2.971e-4 3.81e-4 -4.425e-4 5.72e-4 -0.3167988 0.38299261-0.5575934 0.77651541-0.7320967 1.1978621-0.16255566 0.3924985-0.25759736 0.7055169-0.34409847 1.2001332-0.0189427 0.1083129-0.0380844 0.2395607-0.0512898 0.3451731-0.006603 0.052806-0.0117292 0.099135-0.0146332 0.1333982-0.001451 0.017132-0.002299 0.031186-0.002512 0.042556-1.074e-4 0.00568-1.2439e-4 0.010424 4.425e-4 0.016334 2.8395e-4 0.00295 5.5124e-4 0.00611 0.00207 0.011463 0.001519 0.00535 2.7937e-4 0.016223 0.0224669 0.029517 0.011973 0.00717 0.0135843 0.00576 0.0165547 0.00645 0.00297 6.92e-4 0.005271 0.0012 0.007686 0.00158 0.00483 7.64e-4 0.009959 0.00126 0.0158156 0.00186 0.0117127 0.00121 0.0262162 0.00234 0.0415342 0.00316 0.68710897 0.2476468 0.95169227 0.5122303 1.4808589 0.7767053 0.5291667-0.264475 0.79375-0.5290585 1.5101956-0.7808828l0.031927-0.00258c0.025665-0.00208 0.0454-0.02289 0.045377-0.047857v-0.018187c3e-7 -0.037937-0.00931-0.116291-0.021874-0.2133511-0.0125654-0.097059-0.0286341-0.2075322-0.0431616-0.2914402-0.0863989-0.4990634-0.184627-0.8240305-0.3492719-1.2214825-0.1483221-0.358049-0.3606656-0.719732-0.6144404-1.0471254-5.7e-4 -7.36e-4 -0.00116-0.001448-0.00177-0.002152-0.1708234-0.19601573-0.3360566-0.40175178-0.5162992-0.59247999-0.0090191-0.00958211-0.0216562-0.015216444-0.0350306-0.015618042z" style="fill:#0278dc"/>
 <path transform="scale(.26458333)" d="m8.0214844 0c-0.0529573-0.0015719918-0.1039632 0.019560436-0.140625 0.056640625-0.449102 0.45429954-0.8937413 0.95844018-1.3183594 1.4492188l1.4414062 8.7519526 1.4296876-8.7460932c-0.0071613-0.0084445-0.0143218-0.0169465-0.0214844-0.0253907-0.4098377-0.4831678-0.8219006-0.96646372-1.2578125-1.4277344-0.0340876-0.036215849-0.0822636-0.057075918-0.1328125-0.05859375zm-0.0175782 10.257812l4.3906248-4.0507808c-0.301168-0.7115365-0.671599-1.4246352-1.09375-2.1210937l-3.2968748 6.1718745zl5.4335938-0.8183589c-0.13366-0.578736-0.284305-1.1207555-0.455078-1.6464843l-4.9785158 2.4648432zl5.8066408 2.783204h0.001953l0.015625-0.001954c0.097002-0.007861 0.171962-0.087277 0.171875-0.18164v-0.058594c0-0.001717 1e-5 -0.008005 0-0.009766-8.33e-4 -0.144796-0.035138-0.433642-0.082031-0.794921-0.023925-0.184124-0.053836-0.362213-0.082031-0.552735v-0.007812c-0.02133-0.144798-0.04114-0.290641-0.0625-0.419922l-5.7695318-0.75586zl2.3359378 4.398438c0.426199-0.256036 0.884608-0.511347 1.386718-0.763672l-3.7226558-3.634766zl-0.9882812 5.197266c0.3130658 0.181342 0.6208221 0.36322 0.984375 0.544922 0.3479062-0.173882 0.6417192-0.347834 0.9433594-0.521484l-0.9394532-5.220704zl-3.6777343 3.648438c0.4239286 0.218005 0.8243151 0.436362 1.1933593 0.658203l2.484375-4.306641zl-5.7597656 0.691407c-0.0657641 0.386761-0.1338222 0.829666-0.1796875 1.195312-0.0244764 0.195122-0.0435938 0.363885-0.0546875 0.492188-2.175e-4 0.002515 2.111e-4 0.007283 0 0.009765-0.0048973 0.059557-0.0090089 0.11195-0.0097656 0.152344-2.62e-5 0.001384 2.28e-5 0.00255 0 0.003906-1.16e-5 5.24e-4 1.09e-5 0.001432 0 0.001954v0.001953c-2.2e-4 0.017461 1.344e-4 0.033802 0.0019531 0.052734 0.0010725 0.01115 0.0020703 0.022714 0.0078125 0.042969 0.0028706 0.010129 0.0036316 0.025804 0.0136719 0.044922 0.0100403 0.019117 0.0283834 0.041285 0.0703125 0.066406 0.0452519 0.027099 0.0532264 0.022783 0.0644531 0.02539 0.0112252 0.0026 0.0182162 0.004424 0.0273438 0.00586 0.0182551 0.00288 0.0384128 0.005545 0.0605469 0.007812 0.0442684 0.004574 0.0983551 0.00862 0.15625 0.011719 0.0988291 0.03562 0.1810439 0.07162 0.2753906 0.107422l5.3261718-2.914063zl-4.9824218-2.4648432c-0.1639449 0.5033941-0.3101344 1.0224654-0.4394532 1.5761718l5.421875 0.8886714zl-3.2851562-6.2070308c-0.3989227 0.6542264-0.7451273 1.3243936-1.0449219 2.0117188l4.3300781 4.195312z" style="fill-rule:evenodd;fill:#48a0f8"/>
</svg>

<svg xmlns="http://www.w3.org/2000/svg" width="16" height="16" version="1.1" viewBox="0 0 4.23 4.23">
 <path style="fill:#0278dc" d="M 2.1223185,6.9098422e-5 C 2.108307,-3.4689941e-4 2.0947707,0.00501667 2.0850706,0.01482742 1.9451135,0.15640429 1.8028685,0.31525818 1.6743105,0.46646119 c -1.495e-4,1.898e-4 -2.971e-4,3.81e-4 -4.425e-4,5.72e-4 C 1.3570692,0.8500258 1.1162746,1.2435486 0.9417713,1.6648953 0.77921564,2.0573938 0.68417394,2.3704122 0.59767283,2.8650285 c -0.0189427,0.1083129 -0.0380844,0.2395607 -0.0512898,0.3451731 -0.006603,0.052806 -0.0117292,0.099135 -0.0146332,0.1333982 -0.001451,0.017132 -0.002299,0.031186 -0.002512,0.042556 -1.074e-4,0.00568 -1.2439e-4,0.010424 4.425e-4,0.016334 2.8395e-4,0.00295 5.5124e-4,0.00611 0.00207,0.011463 0.001519,0.00535 2.7937e-4,0.016223 0.0224669,0.029517 0.011973,0.00717 0.0135843,0.00576 0.0165547,0.00645 0.00297,6.92e-4 0.005271,0.0012 0.007686,0.00158 0.00483,7.64e-4 0.009959,0.00126 0.0158156,0.00186 0.0117127,0.00121 0.0262162,0.00234 0.0415342,0.00316 C 1.3229167,3.7041666 1.5875,3.9687501 2.1166666,4.2332251 2.6458333,3.9687501 2.9104166,3.7041666 3.6268622,3.4523423 l 0.031927,-0.00258 c 0.025665,-0.00208 0.0454,-0.02289 0.045377,-0.047857 v -0.018187 c 3e-7,-0.037937 -0.00931,-0.116291 -0.021874,-0.2133511 C 3.6697268,3.0733082 3.6536581,2.962835 3.6391306,2.878927 3.5527317,2.3798636 3.4545036,2.0548965 3.2898587,1.6574445 3.1415366,1.2993955 2.9291931,0.9377125 2.6754183,0.61031913 c -5.7e-4,-7.36e-4 -0.00116,-0.001448 -0.00177,-0.002152 C 2.5028249,0.4121514 2.3375917,0.20641535 2.1573491,0.01568714 2.14833,0.00610503 2.1356929,4.7069633e-4 2.1223185,6.9098422e-5 Z"/>
 <path style="fill:#48a0f8;fill-rule:evenodd" d="M 8.0214844 0 C 7.9685271 -0.0015719918 7.9175212 0.019560436 7.8808594 0.056640625 C 7.4317574 0.51094017 6.9871181 1.0150808 6.5625 1.5058594 L 8.0039062 10.257812 L 9.4335938 1.5117188 C 9.4264325 1.5032743 9.419272 1.4947723 9.4121094 1.4863281 C 9.0022717 1.0031603 8.5902088 0.51986438 8.1542969 0.05859375 C 8.1202093 0.022377901 8.0720333 0.0015178321 8.0214844 0 z M 8.0039062 10.257812 L 12.394531 6.2070312 C 12.093363 5.4954947 11.722932 4.782396 11.300781 4.0859375 L 8.0039062 10.257812 z M 8.0039062 10.257812 L 13.4375 9.4394531 C 13.30384 8.8607171 13.153195 8.3186976 12.982422 7.7929688 L 8.0039062 10.257812 z M 8.0039062 10.257812 L 13.810547 13.041016 L 13.8125 13.041016 L 13.828125 13.039062 C 13.925127 13.031201 14.000087 12.951785 14 12.857422 L 14 12.798828 C 14 12.797111 14.00001 12.790823 14 12.789062 C 13.999167 12.644266 13.964862 12.35542 13.917969 11.994141 C 13.894044 11.810017 13.864133 11.631928 13.835938 11.441406 L 13.835938 11.433594 C 13.814608 11.288796 13.794798 11.142953 13.773438 11.013672 L 8.0039062 10.257812 z M 8.0039062 10.257812 L 10.339844 14.65625 C 10.766043 14.400214 11.224452 14.144903 11.726562 13.892578 L 8.0039062 10.257812 z M 8.0039062 10.257812 L 7.015625 15.455078 C 7.3286908 15.63642 7.6364471 15.818298 8 16 C 8.3479062 15.826118 8.6417192 15.652166 8.9433594 15.478516 L 8.0039062 10.257812 z M 8.0039062 10.257812 L 4.3261719 13.90625 C 4.7501005 14.124255 5.150487 14.342612 5.5195312 14.564453 L 8.0039062 10.257812 z M 8.0039062 10.257812 L 2.2441406 10.949219 C 2.1783765 11.33598 2.1103184 11.778885 2.0644531 12.144531 C 2.0399767 12.339653 2.0208593 12.508416 2.0097656 12.636719 C 2.0095481 12.639234 2.0099767 12.644002 2.0097656 12.646484 C 2.0048683 12.706041 2.0007567 12.758434 2 12.798828 C 1.9999738 12.800212 2.0000228 12.801378 2 12.802734 C 1.9999884 12.803258 2.0000109 12.804166 2 12.804688 C 2 12.804688 2 12.806641 2 12.806641 C 1.99978 12.824102 2.0001344 12.840443 2.0019531 12.859375 C 2.0030256 12.870525 2.0040234 12.882089 2.0097656 12.902344 C 2.0126362 12.912473 2.0133972 12.928148 2.0234375 12.947266 C 2.0334778 12.966383 2.0518209 12.988551 2.09375 13.013672 C 2.1390019 13.040771 2.1469764 13.036455 2.1582031 13.039062 C 2.1694283 13.041662 2.1764193 13.043486 2.1855469 13.044922 C 2.203802 13.047802 2.2239597 13.050467 2.2460938 13.052734 C 2.2903622 13.057308 2.3444489 13.061354 2.4023438 13.064453 C 2.5011729 13.100073 2.5833877 13.136073 2.6777344 13.171875 L 8.0039062 10.257812 z M 8.0039062 10.257812 L 3.0214844 7.7929688 C 2.8575395 8.2963629 2.71135 8.8154342 2.5820312 9.3691406 L 8.0039062 10.257812 z M 8.0039062 10.257812 L 4.71875 4.0507812 C 4.3198273 4.7050076 3.9736227 5.3751748 3.6738281 6.0625 L 8.0039062 10.257812 z" transform="scale(0.26458333)"/>
</svg>
